src/icons/svg/nav-setting.svg

<?xml version="1.0" encoding="UTF-8"?>
<svg width="38px" height="40px" viewBox="0 0 38 40" version="1.1" xmlns="http://www.w3.org/2000/svg"
>
    <title>nav-setting</title>
    <path d="M4.93047342,32.4686742 L4.390577,31.8800129 C2.48814956,29.8096187 1.06887921,27.3428484 0.235116182,24.6575921 L0,23.8982539 L3.56679956,19.0008709 L0,14.1034879 L0.235116182,13.3441497 C1.06831314,10.6590255 2.48698779,8.19225664 4.3888354,6.12172894 L4.93047342,5.53132608 L10.9250652,6.18616818 L13.359824,0.637426288 L14.1400614,0.461524552 C15.5027235,0.154588193 16.8952361,0 18.292039,0 C19.7009944,0 21.0907924,0.155002715 22.4440165,0.45978295 L23.224254,0.633943085 L25.6590127,6.18442658 L31.6536045,5.52958447 L32.1935009,6.12172894 C34.0957536,8.19158333 35.5150177,10.657748 36.3489618,13.3424081 L36.5840779,14.1017463 L33.0172784,19.0008709 L36.5840779,23.8982539 L36.3489618,24.6575921 C35.5157648,27.3427163 34.0970901,29.8094852 32.1952425,31.8800129 L31.6536045,32.4686742 L25.6590127,31.813832 L23.224254,37.3643155 L22.4440165,37.5402173 C21.0907924,37.8449975 19.7009944,38 18.292039,38 C16.8830835,38 15.4932856,37.8449975 14.1400614,37.5402173 L13.359824,37.3660571 L10.9250652,31.813832 L4.93047342,32.4704158 L4.93047342,32.4686742 Z M10.9999541,28.6197351 C12.1258188,28.4963691 13.201373,29.1184273 13.6558962,30.1558276 L15.6064897,34.6038774 C17.3836695,34.9111789 19.2004084,34.9111789 20.9775882,34.6038774 L22.9281818,30.1558276 C23.3830727,29.1197783 24.457556,28.4986367 25.5823822,28.6214767 L30.3804939,29.1439572 C31.5386588,27.7506761 32.4529995,26.1658189 33.0747512,24.4590495 L30.2115586,20.5265137 C29.5493244,19.6172142 29.5493244,18.3845275 30.2115586,17.4752281 L33.0747512,13.5426923 C32.4517641,11.8382031 31.5404075,10.2534912 30.3804939,8.85778465 L25.5823822,9.38026505 C24.457556,9.50310505 23.3830727,8.88196348 22.9281818,7.84591427 L20.9775882,3.39612283 C19.2003997,3.08892472 17.3836783,3.08892472 15.6064897,3.39612283 L13.6558962,7.84591427 C13.2008073,8.88263051 12.1253871,9.50390597 10.9999541,9.38026505 L6.20358401,8.85778465 C5.04541911,10.2510657 4.1310784,11.835923 3.50758511,13.5426923 L6.37251934,17.4752281 C7.03432785,18.3843441 7.03432785,19.6173978 6.37251934,20.5265137 L3.50932671,24.4590495 C4.13282,26.1658189 5.04541911,27.7506761 6.20358401,29.1439572 L10.9999541,28.6214767 L10.9999541,28.6197351 Z M18.292039,26.9181906 C13.9345524,26.9181906 10.406068,23.3722903 10.406068,19.0026125 C10.406068,14.6311931 13.9345524,11.0852928 18.292039,11.0852928 C22.6495255,11.0852928 26.1780099,14.6294515 26.1780099,19.0008709 C26.1780099,23.3722903 22.6495255,26.9164491 18.292039,26.9164491 L18.292039,26.9181906 Z M18.292039,23.7519593 C20.8974746,23.7519593 23.0118305,21.6272058 23.0118305,19.0026125 C23.0159427,17.7467005 22.5210235,16.540574 21.635899,15.6495706 C20.7507747,14.7585672 19.547951,14.2556743 18.292039,14.251524 C15.6774183,14.2601672 13.5645921,16.3862473 13.5722574,19.0008709 C13.5645921,21.6154946 15.6774183,23.7415746 18.292039,23.7502178 L18.292039,23.7519593 Z"
          id="形状"></path>
    <path d="M4.93047342,32.4686742 L4.390577,31.8800129 C2.48814956,29.8096187 1.06887921,27.3428484 0.235116182,24.6575921 L0,23.8982539 L3.56679956,19.0008709 L0,14.1034879 L0.235116182,13.3441497 C1.06831314,10.6590255 2.48698779,8.19225664 4.3888354,6.12172894 L4.93047342,5.53132608 L10.9250652,6.18616818 L13.359824,0.637426288 L14.1400614,0.461524552 C15.5027235,0.154588193 16.8952361,0 18.292039,0 C19.7009944,0 21.0907924,0.155002715 22.4440165,0.45978295 L23.224254,0.633943085 L25.6590127,6.18442658 L31.6536045,5.52958447 L32.1935009,6.12172894 C34.0957536,8.19158333 35.5150177,10.657748 36.3489618,13.3424081 L36.5840779,14.1017463 L33.0172784,19.0008709 L36.5840779,23.8982539 L36.3489618,24.6575921 C35.5157648,27.3427163 34.0970901,29.8094852 32.1952425,31.8800129 L31.6536045,32.4686742 L25.6590127,31.813832 L23.224254,37.3643155 L22.4440165,37.5402173 C21.0907924,37.8449975 19.7009944,38 18.292039,38 C16.8830835,38 15.4932856,37.8449975 14.1400614,37.5402173 L13.359824,37.3660571 L10.9250652,31.813832 L4.93047342,32.4704158 L4.93047342,32.4686742 Z M10.9999541,28.6197351 C12.1258188,28.4963691 13.201373,29.1184273 13.6558962,30.1558276 L15.6064897,34.6038774 C17.3836695,34.9111789 19.2004084,34.9111789 20.9775882,34.6038774 L22.9281818,30.1558276 C23.3830727,29.1197783 24.457556,28.4986367 25.5823822,28.6214767 L30.3804939,29.1439572 C31.5386588,27.7506761 32.4529995,26.1658189 33.0747512,24.4590495 L30.2115586,20.5265137 C29.5493244,19.6172142 29.5493244,18.3845275 30.2115586,17.4752281 L33.0747512,13.5426923 C32.4517641,11.8382031 31.5404075,10.2534912 30.3804939,8.85778465 L25.5823822,9.38026505 C24.457556,9.50310505 23.3830727,8.88196348 22.9281818,7.84591427 L20.9775882,3.39612283 C19.2003997,3.08892472 17.3836783,3.08892472 15.6064897,3.39612283 L13.6558962,7.84591427 C13.2008073,8.88263051 12.1253871,9.50390597 10.9999541,9.38026505 L6.20358401,8.85778465 C5.04541911,10.2510657 4.1310784,11.835923 3.50758511,13.5426923 L6.37251934,17.4752281 C7.03432785,18.3843441 7.03432785,19.6173978 6.37251934,20.5265137 L3.50932671,24.4590495 C4.13282,26.1658189 5.04541911,27.7506761 6.20358401,29.1439572 L10.9999541,28.6214767 L10.9999541,28.6197351 Z M18.292039,26.9181906 C13.9345524,26.9181906 10.406068,23.3722903 10.406068,19.0026125 C10.406068,14.6311931 13.9345524,11.0852928 18.292039,11.0852928 C22.6495255,11.0852928 26.1780099,14.6294515 26.1780099,19.0008709 C26.1780099,23.3722903 22.6495255,26.9164491 18.292039,26.9164491 L18.292039,26.9181906 Z M18.292039,23.7519593 C20.8974746,23.7519593 23.0118305,21.6272058 23.0118305,19.0026125 C23.0159427,17.7467005 22.5210235,16.540574 21.635899,15.6495706 C20.7507747,14.7585672 19.547951,14.2556743 18.292039,14.251524 C15.6774183,14.2601672 13.5645921,16.3862473 13.5722574,19.0008709 C13.5645921,21.6154946 15.6774183,23.7415746 18.292039,23.7502178 L18.292039,23.7519593 Z"
          id="形状" fill-opacity="0.2"></path>
</svg>

<svg width="38" height="40" xmlns="http://www.w3.org/2000/svg"><path d="M4.93 32.469l-.54-.589a19.003 19.003 0 0 1-4.155-7.222L0 23.898l3.567-4.897L0 14.103l.235-.759A19 19 0 0 1 4.39 6.122l.541-.59 5.995.654L13.36.637l.78-.175A18.895 18.895 0 0 1 22.444.46l.78.174 2.435 5.55 5.995-.654.54.592a19 19 0 0 1 4.155 7.22l.235.76L33.017 19l3.567 4.897-.235.76a19 19 0 0 1-4.154 7.222l-.541.589-5.995-.655-2.435 5.55-.78.176c-1.353.305-2.743.46-4.152.46-1.409 0-2.799-.155-4.152-.46l-.78-.174-2.435-5.552-5.995.656v-.001zm6.07-3.85a2.592 2.592 0 0 1 2.656 1.537l1.95 4.448c1.778.307 3.594.307 5.372 0l1.95-4.448a2.592 2.592 0 0 1 2.654-1.535l4.798.523a15.787 15.787 0 0 0 2.695-4.685l-2.863-3.932a2.592 2.592 0 0 1 0-3.052l2.863-3.932a15.835 15.835 0 0 0-2.695-4.685l-4.798.522a2.592 2.592 0 0 1-2.654-1.534l-1.95-4.45a15.767 15.767 0 0 0-5.372 0l-1.95 4.45A2.592 2.592 0 0 1 11 9.38l-4.796-.522a15.83 15.83 0 0 0-2.696 4.685l2.865 3.932c.661.91.661 2.142 0 3.052l-2.864 3.932a15.825 15.825 0 0 0 2.695 4.685L11 28.621v-.001zm7.292-1.7c-4.357 0-7.886-3.547-7.886-7.916 0-4.372 3.529-7.918 7.886-7.918 4.358 0 7.886 3.544 7.886 7.916 0 4.371-3.528 7.915-7.886 7.915v.002zm0-3.167c2.605 0 4.72-2.125 4.72-4.75a4.736 4.736 0 0 0-4.72-4.75A4.735 4.735 0 0 0 13.572 19a4.735 4.735 0 0 0 4.72 4.75v.001z"/><path d="M4.93 32.469l-.54-.589a19.003 19.003 0 0 1-4.155-7.222L0 23.898l3.567-4.897L0 14.103l.235-.759A19 19 0 0 1 4.39 6.122l.541-.59 5.995.654L13.36.637l.78-.175A18.895 18.895 0 0 1 22.444.46l.78.174 2.435 5.55 5.995-.654.54.592a19 19 0 0 1 4.155 7.22l.235.76L33.017 19l3.567 4.897-.235.76a19 19 0 0 1-4.154 7.222l-.541.589-5.995-.655-2.435 5.55-.78.176c-1.353.305-2.743.46-4.152.46-1.409 0-2.799-.155-4.152-.46l-.78-.174-2.435-5.552-5.995.656v-.001zm6.07-3.85a2.592 2.592 0 0 1 2.656 1.537l1.95 4.448c1.778.307 3.594.307 5.372 0l1.95-4.448a2.592 2.592 0 0 1 2.654-1.535l4.798.523a15.787 15.787 0 0 0 2.695-4.685l-2.863-3.932a2.592 2.592 0 0 1 0-3.052l2.863-3.932a15.835 15.835 0 0 0-2.695-4.685l-4.798.522a2.592 2.592 0 0 1-2.654-1.534l-1.95-4.45a15.767 15.767 0 0 0-5.372 0l-1.95 4.45A2.592 2.592 0 0 1 11 9.38l-4.796-.522a15.83 15.83 0 0 0-2.696 4.685l2.865 3.932c.661.91.661 2.142 0 3.052l-2.864 3.932a15.825 15.825 0 0 0 2.695 4.685L11 28.621v-.001zm7.292-1.7c-4.357 0-7.886-3.547-7.886-7.916 0-4.372 3.529-7.918 7.886-7.918 4.358 0 7.886 3.544 7.886 7.916 0 4.371-3.528 7.915-7.886 7.915v.002zm0-3.167c2.605 0 4.72-2.125 4.72-4.75a4.736 4.736 0 0 0-4.72-4.75A4.735 4.735 0 0 0 13.572 19a4.735 4.735 0 0 0 4.72 4.75v.001z" fill-opacity=".2"/></svg>
